usr/share/icons/biglinux-icons-material-dark/22/actions/view-statistics.svg

<svg xmlns="http://www.w3.org/2000/svg" viewBox="0 0 22 22">
<defs id="defs3051">
<style id="current-color-scheme" type="text/css">
.ColorScheme-Text{color:#dedede}
</style>
</defs>
<path d="M15 3v16h4V3zm-6 7v9h4v-9zm-6 4v5h4v-5z" class="ColorScheme-Text" style="fill:currentColor;fill-opacity:1;stroke:none"/>
</svg>

<svg xmlns="http://www.w3.org/2000/svg" viewBox="0 0 22 22">
  <defs id="defs3051">
    <style type="text/css" id="current-color-scheme">
      .ColorScheme-Text {
        color:#dedede;
      }
      </style>
  </defs>
 <path 
    style="fill:currentColor;fill-opacity:1;stroke:none" 
    d="M 15 3 L 15 19 L 19 19 L 19 3 L 15 3 z M 9 10 L 9 19 L 13 19 L 13 10 L 9 10 z M 3 14 L 3 19 L 7 19 L 7 14 L 3 14 z "
	class="ColorScheme-Text"
    />  
</svg>
